X:16
T:Moon & Seven Stars,The. WCa.16
T:Seven Stars. WCa.16
M:6/8
L:1/8
Q:3/8=120
S:Wm. Calvert MS, 1812, Leyburn, Yorks.
R:.jig
O:England
A:North Yorkshire
Z:vmp.Chris Partington, May 2003
K:D
d2A3|Bcd efg|fed cBA|!
d2A AGF|GABA3|Bcd efg|Adcd3:|!
|:e2AA2f|efgf3|fgfe2d|cdBA3|!
BGB AFA|BGB AFA|Bcd efg|cdcd3:|
W:NB=Repeat marks absent from MS

